X: 34
% Old value - X: 1
T: The Earl's Chair
R: reel
M: 4/4
L: 1/8
K: Dmaj
A|"Bm"B2dB BAFA | B2Bd BAFA | "D"AF (3FFF DF (3FFF | AFdB AFEF |!
"Bm"B2dB BAFA | B2Bd BAFA | "D"AFAB dcdf |"A7"edef "D"d3 :||!
"Em"e2ec d2Bd | efec "Bm"dFAB | "Em"e2ec d3e | "D"fedB ADFA |!
"Em"e2ef eB(3BBB | gB(3BBB defg |"D"afbf "A7"afeg | "D"fedB ADFA :||

